svgs/sharp-solid/fax.svg

<svg xmlns="http://www.w3.org/2000/svg" viewBox="0 0 512 512"><!--! Font Awesome Pro 6.6.0 by @fontawesome - https://fontawesome.com License - https://fontawesome.com/license (Commercial License) Copyright 2024 Fonticons, Inc. --><path d="M128 0l0 32 0 128 64 0 0-96 194.7 0L416 93.3l0 66.7 64 0 0-80 0-13.3-9.4-9.4-48-48L413.3 0 400 0 160 0 128 0zM0 128L0 512l96 0 0-384L0 128zm512 64l-384 0 0 320 384 0 0-320zM288 256l0 64-64 0 0-64 64 0zM224 384l64 0 0 64-64 0 0-64zM416 256l0 64-64 0 0-64 64 0zM352 384l64 0 0 64-64 0 0-64z"/></svg>

<svg xmlns="http://www.w3.org/2000/svg" viewBox="0 0 512 512"><!--! Font Awesome Pro 6.4.0 by @fontawesome - https://fontawesome.com License - https://fontawesome.com/license (Commercial License) Copyright 2023 Fonticons, Inc. --><path d="M128 0V32 160h64V64H386.7L416 93.3V160h64V80 66.7l-9.4-9.4-48-48L413.3 0H400 160 128zM0 128V512H96V128H0zm512 64H128V512H512V192zM288 256v64H224V256h64zM224 384h64v64H224V384zM416 256v64H352V256h64zM352 384h64v64H352V384z"/></svg>
